!!!OTL: Der Wasserkrug (Band 1), S. 133
!!!id: P0817
**kern
*clefG2
*k[f#]
*e:
{8e
=1
8g
8f#
8g
8a
=2
8b
8b
8e}
=3
{8g
=4
8f#
8f#
8e
8dd#
=5
4e}
8r
=6
{8g
=7
8a
8g
8a
8b
=8
8cc
8cc
8g}
=9
{8cc
=10
8b
8a
8g
8a
=11
4e}
=12
{8f#
8a
=13
8b
8a
8g
8f#
=14
4e}
8r
==
*-
!!!minrhy: 8
!!!meters: 2/4 ]  ZZ[5
!!!cut: Der Wasserkrug (Band 1), S. 133
!!!reg: Lothringen
!!!trd: PINCK, Louis: Verklingende Weisen, Bd 1, Metz 1928
!!!rhy1: X  XXXX  XXX
!!!rhy2: X  XXXX  X_0
!!!key: P0817  08  E 2/4 ]  ZZ[5
!!!mod: HEPTATONIK HARMONISCH MOLL]  AMBITUS[7
!!!kad: 113b11
!!!akz: 3b5_21_46b_51_51_
!!!fot: 'a__b__as"c__d__
!!!for: 'a__aw_a__aw_aw_
!!!fok: '^__\__^__\__^d_
!! PHRAS[AUFTAKTIG]
!!!fkt: Standesunterschied, Beischlaf
!! LOTH VKL
!! PR[15] 2K[0] 2G[12] 3K[9] 3G[3] 4A[6] 4Ü[0] 5A[3] 6K[0] 6G[0]
!! 7K[0] 7G[0] 8A[0] MEHR[0] SI[33] ABS[33] SR[12] SP[21]
!! ST[0] 2k[12] 2g[36] 3k[3] 3g[0] 4d[0] 4ü[0] 5d[0] 6k[0] 6g[0]
!! 7k[0] 7g[0] 8d[0] mehr[0] si[52] dm[-19] sr[48] sp[3]
!! 1F[5] 2F[74] 3F[21] 4F[0] LF[0] 2P[0] 3P[0] 4P[0] TRI[0] DF[3] AB[39]
!! TF[0] U3K[0] U3[0] U4[0] U4Ü[0] U5[3] U6K[0] U6[0] U7K[0] U7[0]
!! N1[21] N2K[0] N2[15] N3K[21] N3[0] N4[26] N4Ü[0] N5[15] N6K[0] N6[0]
!!!n7k: 0] N7[0] O1[0] O2K[0] O2[0] O3K[0] O3[0] HÖ[0
